sprites/streets-v8/_svg/embassy-11.svg

<?xml version="1.0" encoding="utf-8"?>
<!-- Generator: Adobe Illustrator 17.1.0, SVG Export Plug-In . SVG Version: 6.00 Build 0)  -->
<!DOCTYPE svg PUBLIC "-//W3C//DTD SVG 1.1//EN" "http://www.w3.org/Graphics/SVG/1.1/DTD/svg11.dtd">
<svg version="1.1"
	 id="svg2" xmlns:svg="http://www.w3.org/2000/svg" xmlns:cc="http://creativecommons.org/ns#" xmlns:dc="http://purl.org/dc/elements/1.1/" xmlns:rdf="http://www.w3.org/1999/02/22-rdf-syntax-ns#"
	 xmlns="http://www.w3.org/2000/svg" xmlns:xlink="http://www.w3.org/1999/xlink" x="0px" y="0px" width="19px" height="19px"
	 viewBox="0 0 19 19" enable-background="new 0 0 19 19" xml:space="preserve">
<ellipse id="ellipse4" fill="#FFFFFF" cx="9.5" cy="9.5" rx="9.5" ry="9.5"/>
<ellipse id="ellipse6" fill="#A9A199" cx="9.5" cy="9.5" rx="8.5" ry="8.5"/>
<g id="g8" transform="translate(4,4)">
	<path id="path5324" fill="#FFFFFF" d="M5.5,1c-1,0-2,1.5-2,1.5v4c0,0,1.2-1.5,2-1.5C6.5,5,7,6.5,8,6.5S10,5,10,5V1c0,0-1,1.5-2,1.5
		S6.5,1,5.5,1z M2.5,1.5C2.2,1.5,2,1.7,2,2v6c0,1-1,1-1,1v1h3V9c0,0-1,0-1-1V6.5V2C3,1.7,2.8,1.5,2.5,1.5z"/>
</g>
</svg>

<?xml version="1.0" encoding="UTF-8" standalone="no"?>
<svg
   xmlns:dc="http://purl.org/dc/elements/1.1/"
   xmlns:cc="http://creativecommons.org/ns#"
   xmlns:rdf="http://www.w3.org/1999/02/22-rdf-syntax-ns#"
   xmlns:svg="http://www.w3.org/2000/svg"
   xmlns="http://www.w3.org/2000/svg"
   id="svg2"
   width="19"
   height="19"
   viewBox="0 0 19 19"
   version="1.1">
  <metadata
     id="metadata14">
    <rdf:RDF>
      <cc:Work
         rdf:about="">
        <dc:format>image/svg+xml</dc:format>
        <dc:type
           rdf:resource="http://purl.org/dc/dcmitype/StillImage" />
      </cc:Work>
    </rdf:RDF>
  </metadata>
  <defs
     id="defs12" />
  <ellipse
     id="ellipse4"
     ry="9.5"
     rx="9.5"
     cy="9.5"
     cx="9.5"
     style="fill:#ffffff;stroke:none;" />
  <ellipse
     id="ellipse6"
     rx="8.5"
     ry="8.5"
     cy="9.5"
     cx="9.5"
     style="fill:#a9a199;stroke:none;" />
  <g
     id="g8"
     transform="translate(4,4)">
      <defs     id="defs4766" />  <metadata     id="metadata4769">    <rdf:RDF>      <cc:Work         rdf:about="">        <dc:format>image/svg+xml</dc:format>        <dc:type           rdf:resource="http://purl.org/dc/dcmitype/StillImage" />        <dc:title />      </cc:Work>    </rdf:RDF>  </metadata>  <path     id="path5324"     d="M 5.5 1 C 4.5 1 3.5 2.5 3.5 2.5 L 3.5 6.5 C 3.5 6.5 4.666667 5 5.5 5 C 6.5 5 7.028175 6.5 8 6.5 C 8.971825 6.5 10 5 10 5 L 10 1 C 10 1 8.971825 2.5 8 2.5 C 7.028175 2.5 6.5 1 5.5 1 z M 2.5 1.5 A 0.5 0.50000006 0 0 0 2 2 L 2 8 C 2 9 1 9 1 9 L 1 10 L 4 10 L 4 9 C 4 9 3 9 3 8 L 3 6.5 L 3 2 A 0.5 0.50000006 0 0 0 2.5 1.5 z "     style="fill:#ffffff;fill-opacity:1" />
  </g>
</svg>
